src/ios-medkit-outline.svg

<?xml version="1.0" encoding="utf-8"?>
<!-- Generated by IcoMoon.io -->
<!DOCTYPE svg PUBLIC "-//W3C//DTD SVG 1.1//EN" "http://www.w3.org/Graphics/SVG/1.1/DTD/svg11.dtd">
<svg version="1.1" xmlns="http://www.w3.org/2000/svg" xmlns:xlink="http://www.w3.org/1999/xlink" width="512" height="512" viewBox="0 0 512 512">
<path fill="#000000" d="M272 208v64h64v32h-64v64h-32v-64h-64v-32h64v-64h32zM288 192h-64v64h-64v64h64v64h64v-64h64v-64h-64v-64z"></path>
<path fill="#000000" d="M336 128v-32c-0.5-18.2-13.6-32-32.2-32h-99.1c-18.6 0-28.7 13.7-28.7 32v32h-128v320h416v-320h-128zM192 98.1c0-10.2 2.9-18.1 13.7-18.1h97.1c10.4 0 17.2 7.7 17.2 18.1v29.9h-128v-29.9zM448 432h-384v-288h384v288z"></path>
</svg>

<?xml version="1.0" encoding="utf-8"?>
<!-- Generator: Adobe Illustrator 16.2.1, SVG Export Plug-In . SVG Version: 6.00 Build 0)  -->
<!DOCTYPE svg PUBLIC "-//W3C//DTD SVG 1.1//EN" "http://www.w3.org/Graphics/SVG/1.1/DTD/svg11.dtd">
<svg version="1.1" id="Layer_1" xmlns="http://www.w3.org/2000/svg" xmlns:xlink="http://www.w3.org/1999/xlink" x="0px" y="0px"
	 width="512px" height="512px" viewBox="0 0 512 512" style="enable-background:new 0 0 512 512;" xml:space="preserve">
<g>
	<g>
		<path d="M272,208v48v16h16h48v32h-48h-16v16v48h-32v-48v-16h-16h-48v-32h48h16v-16v-48H272 M288,192h-64v64h-64v64h64v64h64v-64
			h64v-64h-64V192L288,192z"/>
	</g>
	<path d="M336,128V96c-0.5-18.2-13.6-32-32.2-32h-99.1C186.1,64,176,77.7,176,96v32H48v320h416V128H336z M192,98.1
		c0-10.2,2.9-18.1,13.7-18.1h97.1c10.4,0,17.2,7.7,17.2,18.1V128H192V98.1z M448,432H64V144h384V432z"/>
</g>
</svg>
